findly-builder/apps/searchassist/src/assets/icons/overview/question.svg

<svg width="23" height="23" viewBox="0 0 23 23" fill="none" xmlns="http://www.w3.org/2000/svg">
<path d="M17.2497 8.14551V20.1247C17.2497 20.6542 16.8208 21.083 16.2913 21.083H4.79134C4.26186 21.083 3.83301 20.6542 3.83301 20.1247V4.79134C3.83301 4.26186 4.26186 3.83301 4.79134 3.83301H12.9372L17.2497 8.14551Z" fill="#85B7FE"/>
<path opacity="0.05" d="M4.79199 3.83301H17.2503V20.1247H6.5558C5.58166 20.1247 4.79199 19.335 4.79199 18.3609V3.83301Z" fill="#3C4043"/>
<path opacity="0.07" d="M5.27051 3.83301H14.8256C16.1644 3.83301 17.2497 4.91832 17.2497 6.25711V19.6455H6.63086C5.87953 19.6455 5.27051 19.0365 5.27051 18.2852V3.83301Z" fill="#3C4043"/>
<path d="M19.1667 6.70866V18.2087C19.1667 18.7381 18.7378 19.167 18.2083 19.167H6.70833C6.17885 19.167 5.75 18.7381 5.75 18.2087V2.87533C5.75 2.34585 6.17885 1.91699 6.70833 1.91699H14.375L19.1667 6.70866Z" fill="#85B7FE"/>
<path d="M14.375 1.91699V5.75033C14.375 6.2798 14.8039 6.70866 15.3333 6.70866H19.1667L14.375 1.91699Z" fill="#07377F"/>
<path d="M11.5805 13.2951C11.5489 13.2127 11.4808 12.9683 11.4808 12.7263C11.4808 11.3492 12.8987 11.2965 12.8987 10.2749C12.8987 9.63186 12.2633 9.59209 12.1498 9.59209C11.4281 9.59209 10.8646 10.0047 10.6279 10.2131V8.78565C10.8713 8.64046 11.4281 8.34961 12.316 8.34961C14.3717 8.34961 14.3975 9.76267 14.3975 10.066C14.3975 11.6971 12.7142 11.8183 12.7142 12.8634C12.7142 13.0814 12.7933 13.2409 12.8278 13.2946H11.5805V13.2951ZM12.2724 15.5371C11.881 15.5371 11.4674 15.2927 11.4674 14.8188C11.4674 14.3449 11.8972 14.1092 12.2724 14.1092C12.6476 14.1092 13.0645 14.3195 13.0645 14.8188C13.0645 15.3181 12.6639 15.5371 12.2724 15.5371Z" fill="#07377F"/>
</svg>

<svg width="23" height="23" fill="none" xmlns="http://www.w3.org/2000/svg"><path d="M17.25 8.146v11.979c0 .53-.43.958-.959.958h-11.5a.958.958 0 0 1-.958-.958V4.79c0-.53.429-.958.958-.958h8.146l4.313 4.313Z" fill="#85B7FE"/><path opacity=".05" d="M4.792 3.833H17.25v16.292H6.556c-.974 0-1.764-.79-1.764-1.764V3.833Z" fill="#3C4043"/><path opacity=".07" d="M5.27 3.833h9.556a2.424 2.424 0 0 1 2.424 2.424v13.388H6.63a1.36 1.36 0 0 1-1.36-1.36V3.833Z" fill="#3C4043"/><path d="M19.167 6.709v11.5c0 .53-.43.958-.959.958h-11.5a.958.958 0 0 1-.958-.958V2.875c0-.53.429-.958.958-.958h7.667l4.792 4.792Z" fill="#85B7FE"/><path d="M14.375 1.917V5.75c0 .53.429.959.958.959h3.834l-4.792-4.792ZM11.58 13.295a1.833 1.833 0 0 1-.1-.569c0-1.377 1.419-1.43 1.419-2.451 0-.643-.636-.683-.75-.683-.72 0-1.284.413-1.521.621V8.786c.243-.146.8-.436 1.688-.436 2.056 0 2.082 1.413 2.082 1.716 0 1.631-1.684 1.752-1.684 2.797 0 .218.08.378.114.432H11.58Zm.692 2.242c-.391 0-.805-.244-.805-.718s.43-.71.805-.71c.376 0 .793.21.793.71s-.401.718-.793.718Z" fill="#07377F"/></svg>
